assets/logos/tools.svg

<svg width="480" height="320" version="1.1" viewBox="0 0 127 84.667" xmlns="http://www.w3.org/2000/svg" xmlns:xlink="http://www.w3.org/1999/xlink">
 <defs>
  <linearGradient id="a" x1="70.674" x2="94.685" y1="-100.95" y2="96.493" gradientUnits="userSpaceOnUse">
   <stop stop-color="#667885" offset="0"/>
   <stop stop-color="#273445" offset="1"/>
  </linearGradient>
 </defs>
 <rect width="127" height="84.667" ry="4.2333" fill="url(#a)" stroke-linecap="square" stroke-linejoin="round" stroke-width=".52917" style="paint-order:stroke fill markers"/>
 <g transform="matrix(2.1167 0 0 2.1167 38.1 16.933)">
  <rect width="24" height="24" fill="none"/>
  <g fill="#fff">
   <g fill="#fff">
    <path d="m21.67 18.17-5.3-5.3h-0.99l-2.54 2.54v0.99l5.3 5.3c0.39 0.39 1.02 0.39 1.41 0l2.12-2.12c0.39-0.38 0.39-1.02 0-1.41zm-2.83 1.42-4.24-4.24 0.71-0.71 4.24 4.24z"/>
    <path d="m17.34 10.19 1.41-1.41 2.12 2.12c1.17-1.17 1.17-3.07 0-4.24l-3.54-3.54-1.41 1.41v-2.82l-0.7-0.71-3.54 3.54 0.71 0.71h2.83l-1.41 1.41 1.06 1.06-2.89 2.89-4.13-4.13v-1.42l-3.02-3.02-2.83 2.83 3.03 3.03h1.41l4.13 4.13-0.85 0.85h-2.12l-5.3 5.3c-0.39 0.39-0.39 1.02 0 1.41l2.12 2.12c0.39 0.39 1.02 0.39 1.41 0l5.3-5.3v-2.12l5.15-5.15zm-7.98 5.15-4.24 4.24-0.71-0.71 4.24-4.24z"/>
   </g>
  </g>
 </g>
 <style type="text/css">.st0{fill:#FC0C18;}
	.st1{fill:#FC0C18;}</style>
</svg>

<?xml version="1.0" encoding="UTF-8" standalone="no"?>
<!-- Created with Inkscape (http://www.inkscape.org/) -->

<svg
   width="480"
   height="320"
   viewBox="0 0 127 84.666667"
   version="1.1"
   id="svg1543"
   inkscape:export-filename="/home/vitor/Dev/es-theme-material-tv-3-2/assets/logo/tools.png"
   inkscape:export-xdpi="96"
   inkscape:export-ydpi="96"
   inkscape:version="1.1.1 (3bf5ae0d25, 2021-09-20)"
   sodipodi:docname="tools.svg"
   xmlns:inkscape="http://www.inkscape.org/namespaces/inkscape"
   xmlns:sodipodi="http://sodipodi.sourceforge.net/DTD/sodipodi-0.dtd"
   xmlns:xlink="http://www.w3.org/1999/xlink"
   xmlns="http://www.w3.org/2000/svg"
   xmlns:svg="http://www.w3.org/2000/svg">
  <sodipodi:namedview
     id="namedview1545"
     pagecolor="#505050"
     bordercolor="#eeeeee"
     borderopacity="1"
     inkscape:pageshadow="0"
     inkscape:pageopacity="0"
     inkscape:pagecheckerboard="0"
     inkscape:document-units="px"
     showgrid="false"
     units="px"
     width="640px"
     inkscape:snap-page="true"
     showguides="true"
     inkscape:guide-bbox="true"
     inkscape:zoom="1.5821514"
     inkscape:cx="193.09151"
     inkscape:cy="171.91781"
     inkscape:window-width="1920"
     inkscape:window-height="1019"
     inkscape:window-x="0"
     inkscape:window-y="30"
     inkscape:window-maximized="1"
     inkscape:current-layer="layer1">
    <sodipodi:guide
       position="10.583333,76.729167"
       orientation="-1,0"
       id="guide2978"
       inkscape:label=""
       inkscape:locked="false"
       inkscape:color="rgb(0,0,255)" />
    <sodipodi:guide
       position="116.41667,7.9375"
       orientation="-1,0"
       id="guide2980"
       inkscape:label=""
       inkscape:locked="false"
       inkscape:color="rgb(0,0,255)" />
    <sodipodi:guide
       position="10.583333,71.4375"
       orientation="0,1"
       id="guide2982"
       inkscape:label=""
       inkscape:locked="false"
       inkscape:color="rgb(0,0,255)" />
    <sodipodi:guide
       position="116.41667,13.229167"
       orientation="0,1"
       id="guide2984"
       inkscape:label=""
       inkscape:locked="false"
       inkscape:color="rgb(0,0,255)" />
  </sodipodi:namedview>
  <defs
     id="defs1540">
    <linearGradient
       inkscape:collect="always"
       id="linearGradient2856">
      <stop
         style="stop-color:#667885;stop-opacity:1"
         offset="0"
         id="stop2852" />
      <stop
         style="stop-color:#273445;stop-opacity:1"
         offset="1"
         id="stop2854" />
    </linearGradient>
    <linearGradient
       inkscape:collect="always"
       xlink:href="#linearGradient2856"
       id="linearGradient2858"
       x1="70.674187"
       y1="-100.94778"
       x2="94.684792"
       y2="96.492844"
       gradientUnits="userSpaceOnUse" />
    <clipPath
       id="clip1">
      <path
         d="m 249,0 h 75 v 124.51172 h -75 z m 0,0"
         id="path2" />
    </clipPath>
    <clipPath
       id="clip2">
      <path
         d="m 421,0 h 90 v 124.51172 h -90 z m 0,0"
         id="path5" />
    </clipPath>
    <clipPath
       id="clip3">
      <path
         d="m 513,0 h 28 v 124.51172 h -28 z m 0,0"
         id="path8" />
    </clipPath>
    <clipPath
       id="clip4">
      <path
         d="m 659,4 h 86.87109 V 124 H 659 Z m 0,0"
         id="path11" />
    </clipPath>
    <marker
       id="DefaultArrow2"
       markerUnits="strokeWidth"
       viewBox="0 0 1 1"
       markerWidth="1"
       markerHeight="1"
       overflow="visible"
       orient="auto">
      <!-- REF_ARROW_STRAIGHT (-2) -->
      <g
         transform="scale(0.0092592592)"
         id="g8989">
        <!-- 1/108 -->
        <path
           d="M -9 54 L -9 -54 L 117 0 z"
           id="path8987" />
      </g>
    </marker>
    <marker
       id="DefaultArrow3"
       markerUnits="strokeWidth"
       viewBox="0 0 1 1"
       markerWidth="1"
       markerHeight="1"
       overflow="visible"
       orient="auto">
      <!-- REF_ARROW_ANGLED -->
      <g
         transform="scale(0.0092592592)"
         id="g8994">
        <path
           d="M -27 54 L -9 0 L -27 -54 L 135 0 z"
           id="path8992" />
      </g>
    </marker>
    <marker
       id="DefaultArrow4"
       markerUnits="strokeWidth"
       viewBox="0 0 1 1"
       markerWidth="1"
       markerHeight="1"
       overflow="visible"
       orient="auto">
      <!-- REF_ARROW_ROUNDED -->
      <g
         transform="scale(0.0092592592)"
         id="g8999">
        <path
           d="M -9,0 L -9,-45 C -9,-51.708 2.808,-56.580 9,-54 L 117,-9 C 120.916,-7.369 126.000,-4.242 126,0 C 126,4.242 120.916,7.369 117,9 L 9,54 C 2.808,56.580 -9,51.708 -9,45 z"
           id="path8997" />
      </g>
    </marker>
    <marker
       id="DefaultArrow5"
       markerUnits="strokeWidth"
       viewBox="0 0 1 1"
       markerWidth="1"
       markerHeight="1"
       overflow="visible"
       orient="auto">
      <!-- REF_ARROW_SPOT -->
      <g
         transform="scale(0.0092592592)"
         id="g9004">
        <path
           d="M -54, 0 C -54,29.807 -29.807,54 0,54 C 29.807,54 54,29.807 54,0 C 54,-29.807 29.807,-54 0,-54 C -29.807,-54 -54,-29.807 -54,0 z"
           id="path9002" />
      </g>
    </marker>
    <marker
       id="DefaultArrow6"
       markerUnits="strokeWidth"
       viewBox="0 0 1 1"
       markerWidth="1"
       markerHeight="1"
       overflow="visible"
       orient="auto">
      <!-- REF_ARROW_DIAMOND -->
      <g
         transform="scale(0.0092592592)"
         id="g9009">
        <path
           d="M -63,0 L 0,63 L 63,0 L 0,-63 z"
           id="path9007" />
      </g>
    </marker>
    <marker
       id="DefaultArrow7"
       markerUnits="strokeWidth"
       viewBox="0 0 1 1"
       markerWidth="1"
       markerHeight="1"
       overflow="visible"
       orient="auto">
      <!-- REF_ARROW_FEATHER -->
      <g
         transform="scale(0.0092592592)"
         id="g9014">
        <path
           d="M 18,-54 L 108,-54 L 63,0 L 108,54 L 18, 54 L -36,0 z"
           id="path9012" />
      </g>
    </marker>
    <marker
       id="DefaultArrow8"
       markerUnits="strokeWidth"
       viewBox="0 0 1 1"
       markerWidth="1"
       markerHeight="1"
       overflow="visible"
       orient="auto">
      <!-- REF_ARROW_FEATHER2 -->
      <g
         transform="scale(0.0092592592)"
         id="g9019">
        <path
           d="M -36,0 L 18,-54 L 54,-54 L 18,-18 L 27,-18 L 63,-54 L 99,-54 L 63,-18 L 72,-18 L 108,-54 L 144,-54 L 90,0 L 144,54 L 108,54 L 72,18 L 63,18 L 99,54 L 63,54 L 27,18 L 18,18 L 54,54 L 18,54 z"
           id="path9017" />
      </g>
    </marker>
    <marker
       id="DefaultArrow9"
       markerUnits="strokeWidth"
       viewBox="0 0 1 1"
       markerWidth="1"
       markerHeight="1"
       overflow="visible"
       orient="auto">
      <!-- REF_ARROW_HOLLOWDIAMOND -->
      <g
         transform="scale(0.0092592592)"
         id="g9024">
        <path
           d="M 0,45 L -45,0 L 0, -45 L 45, 0 z M 0, 63 L-63, 0 L 0, -63 L 63, 0 z"
           id="path9022" />
      </g>
    </marker>
    <filter
       id="StainedFilter">
      <feBlend
         mode="multiply"
         in2="BackgroundImage"
         in="SourceGraphic"
         result="blend"
         id="feBlend9027" />
      <feComposite
         in="blend"
         in2="SourceAlpha"
         operator="in"
         result="comp"
         id="feComposite9029" />
    </filter>
    <filter
       id="BleachFilter">
      <feBlend
         mode="screen"
         in2="BackgroundImage"
         in="SourceGraphic"
         result="blend"
         id="feBlend9032" />
      <feComposite
         in="blend"
         in2="SourceAlpha"
         operator="in"
         result="comp"
         id="feComposite9034" />
    </filter>
    <filter
       id="InvertTransparencyBitmapFilter">
      <feComponentTransfer
         id="feComponentTransfer9043">
        <feFuncR
           type="gamma"
           amplitude="1.055"
           exponent=".416666666"
           offset="-0.055"
           id="feFuncR9037" />
        <feFuncG
           type="gamma"
           amplitude="1.055"
           exponent=".416666666"
           offset="-0.055"
           id="feFuncG9039" />
        <feFuncB
           type="gamma"
           amplitude="1.055"
           exponent=".416666666"
           offset="-0.055"
           id="feFuncB9041" />
      </feComponentTransfer>
      <feComponentTransfer
         id="feComponentTransfer9053">
        <feFuncR
           type="linear"
           slope="-1"
           intercept="1"
           id="feFuncR9045" />
        <feFuncG
           type="linear"
           slope="-1"
           intercept="1"
           id="feFuncG9047" />
        <feFuncB
           type="linear"
           slope="-1"
           intercept="1"
           id="feFuncB9049" />
        <feFuncA
           type="linear"
           slope="1"
           intercept="0"
           id="feFuncA9051" />
      </feComponentTransfer>
      <feComponentTransfer
         id="feComponentTransfer9061">
        <feFuncR
           type="gamma"
           amplitude="1"
           exponent="2.4"
           offset="0"
           id="feFuncR9055" />
        <feFuncG
           type="gamma"
           amplitude="1"
           exponent="2.4"
           offset="0"
           id="feFuncG9057" />
        <feFuncB
           type="gamma"
           amplitude="1"
           exponent="2.4"
           offset="0"
           id="feFuncB9059" />
      </feComponentTransfer>
    </filter>
    <inkscape:perspective
       sodipodi:type="inkscape:persp3d"
       inkscape:vp_x="0 : 526.18109 : 1"
       inkscape:vp_y="0 : 1000 : 0"
       inkscape:vp_z="744.09448 : 526.18109 : 1"
       inkscape:persp3d-origin="372.04724 : 350.78739 : 1"
       id="perspective10" />
    <inkscape:perspective
       id="perspective2824"
       inkscape:persp3d-origin="0.5 : 0.33333333 : 1"
       inkscape:vp_z="1 : 0.5 : 1"
       inkscape:vp_y="0 : 1000 : 0"
       inkscape:vp_x="0 : 0.5 : 1"
       sodipodi:type="inkscape:persp3d" />
  </defs>
  <g
     inkscape:label="Camada 1"
     inkscape:groupmode="layer"
     id="layer1">
    <rect
       style="opacity:1;fill:url(#linearGradient2858);fill-opacity:1;stroke-width:0.529167;stroke-linecap:square;stroke-linejoin:round;paint-order:stroke fill markers"
       id="rect1569"
       width="127"
       height="84.666664"
       x="0"
       y="0"
       ry="4.2333331"
       inkscape:export-filename="/home/vitor/Dev/es-theme-material-tv-3-2/assets/logo/fbn.png"
       inkscape:export-xdpi="96"
       inkscape:export-ydpi="96" />
    <g
       style="fill:#000000"
       id="g17449"
       transform="matrix(2.1166667,0,0,2.1166667,38.1,16.933333)">
      <g
         id="g17421">
        <rect
           fill="none"
           height="24"
           width="24"
           id="rect17419"
           x="0"
           y="0" />
      </g>
      <g
         id="g17433">
        <g
           id="g17431"
           style="fill:#ffffff">
          <g
             id="g17425"
             style="fill:#ffffff">
            <path
               d="m 21.67,18.17 -5.3,-5.3 h -0.99 l -2.54,2.54 v 0.99 l 5.3,5.3 c 0.39,0.39 1.02,0.39 1.41,0 l 2.12,-2.12 c 0.39,-0.38 0.39,-1.02 0,-1.41 z m -2.83,1.42 -4.24,-4.24 0.71,-0.71 4.24,4.24 z"
               id="path17423"
               style="fill:#ffffff" />
          </g>
          <g
             id="g17429"
             style="fill:#ffffff">
            <path
               d="m 17.34,10.19 1.41,-1.41 2.12,2.12 c 1.17,-1.17 1.17,-3.07 0,-4.24 L 17.33,3.12 15.92,4.53 V 1.71 L 15.22,1 11.68,4.54 12.39,5.25 h 2.83 L 13.81,6.66 14.87,7.72 11.98,10.61 7.85,6.48 V 5.06 L 4.83,2.04 2,4.87 5.03,7.9 h 1.41 l 4.13,4.13 -0.85,0.85 H 7.6 l -5.3,5.3 c -0.39,0.39 -0.39,1.02 0,1.41 l 2.12,2.12 c 0.39,0.39 1.02,0.39 1.41,0 l 5.3,-5.3 V 14.29 L 16.28,9.14 Z M 9.36,15.34 5.12,19.58 4.41,18.87 8.65,14.63 v 0 z"
               id="path17427"
               style="fill:#ffffff" />
          </g>
        </g>
      </g>
    </g>
  </g>
  <style
     type="text/css"
     id="style3952">
	.st0{fill:#FC0C18;}
	.st1{fill:#FC0C18;}
</style>
</svg>
